;FLAVOR:Marlin
;TIME:2734
;Filament used: 2.45119m
;Layer height: 0.2
;MINX:63.5
;MINY:84.5
;MINZ:0.2
;MAXX:156.5
;MAXY:135.5
;MAXZ:15
;Generated with Cura_SteamEngine master
M140 S50
M105
M190 S50
M104 S200
M105
M109 S200
M82 ;absolute extrusion mode
M201 X500.00 Y500.00 Z100.00 E5000.00 ;Setup machine max acceleration
M203 X500.00 Y500.00 Z10.00 E50.00 ;Setup machine max feedrate
M204 P500.00 R1000.00 T500.00 ;Setup Print/Retract/Travel acceleration
M205 X8.00 Y8.00 Z0.40 E5.00 ;Setup Jerk
M220 S100 ;Reset Feedrate
M221 S100 ;Reset Flowrate

G28 ;Home

G92 E0 ;Reset Extruder
G1 Z2.0 F3000 ;Move Z Axis up
G1 X10.1 Y20 Z0.28 F5000.0 ;Move to start position
G1 X10.1 Y200.0 Z0.28 F1500.0 E15 ;Draw the first line
G1 X10.4 Y200.0 Z0.28 F5000.0 ;Move to side a little
G1 X10.4 Y20 Z0.28 F1500.0 E30 ;Draw the second line
G92 E0 ;Reset Extruder
G1 Z2.0 F3000 ;Move Z Axis up

G92 E0
G92 E0
G1 F2700 E-5
;LAYER_COUNT:75
;LAYER:0
M107
G0 F6000 X67.386 Y87.127 Z0.2
;TYPE:SKIRT
G1 F2700 E0
G1 F1200 X68.126 Y86.551 E0.03119
G1 X68.912 Y86.039 E0.06239
G1 X69.739 Y85.597 E0.09358
G1 X70.601 Y85.227 E0.12478
G1 X71.491 Y84.931 E0.15597
G1 X72.403 Y84.713 E0.18716
G1 X73.33 Y84.572 E0.21835
G1 X74.201 Y84.513 E0.24738
G1 X74.522 Y84.504 E0.25806
G1 X74.83 Y84.5 E0.26831
G1 X144.793 Y84.5 E2.59529
G1 X145.649 Y84.511 E2.62376
G1 X146.585 Y84.565 E2.65494
G1 X147.513 Y84.697 E2.68612
G1 X148.427 Y84.909 E2.71733
G1 X149.319 Y85.198 E2.74851
G1 X150.184 Y85.561 E2.77971
G1 X151.014 Y85.997 E2.8109
G1 X151.805 Y86.502 E2.84211
G1 X152.549 Y87.073 E2.8733
G1 X153.242 Y87.705 E2.9045
G1 X153.879 Y88.393 E2.93568
G1 X154.454 Y89.134 E2.96688
G1 X154.965 Y89.92 E2.99806
G1 X155.407 Y90.748 E3.02928
G1 X155.776 Y91.61 E3.06047
G1 X156.071 Y92.5 E3.09165
G1 X156.289 Y93.412 E3.12284
G1 X156.429 Y94.34 E3.15405
G1 X156.487 Y95.201 E3.18275
G1 X156.496 Y95.521 E3.1934
G1 X156.5 Y95.83 E3.20368
G1 X156.499 Y114.9 E3.83795
G1 X156.49 Y115.627 E3.86213
G1 X156.439 Y116.564 E3.89334
G1 X156.307 Y117.492 E3.92452
G1 X156.098 Y118.406 E3.9557
G1 X155.811 Y119.299 E3.9869
G1 X155.449 Y120.165 E4.01812
G1 X155.015 Y120.996 E4.0493
G1 X154.511 Y121.787 E4.0805
G1 X153.942 Y122.532 E4.11168
G1 X153.311 Y123.227 E4.1429
G1 X152.624 Y123.865 E4.17408
G1 X151.885 Y124.442 E4.20527
G1 X151.099 Y124.954 E4.23647
G1 X150.273 Y125.397 E4.26764
G1 X149.411 Y125.769 E4.29887
G1 X148.522 Y126.065 E4.33003
G1 X147.61 Y126.285 E4.36123
G1 X146.683 Y126.426 E4.39242
G1 X145.799 Y126.487 E4.42189
G1 X145.478 Y126.496 E4.43257
G1 X145.17 Y126.5 E4.44282
G1 X139.037 Y126.499 E4.6468
G1 X138.327 Y126.488 E4.67042
G1 X137.418 Y126.436 E4.7007
G1 X137.014 Y126.396 E4.71421
G1 X134.412 Y126.176 E4.80106
G1 X131.89 Y126.034 E4.88507
G1 X129.366 Y125.963 E4.96905
G1 X126.843 Y125.963 E5.05297
G1 X124.347 Y126.035 E5.13602
G1 X121.845 Y126.176 E5.21937
G1 X119.314 Y126.393 E5.30386
G1 X116.83 Y126.676 E5.38701
G1 X114.34 Y127.03 E5.47066
G1 X111.854 Y127.457 E5.55456
G1 X109.381 Y127.953 E5.63845
G1 X106.937 Y128.517 E5.72187
G1 X104.481 Y129.156 E5.80628
G1 X102.073 Y129.856 E5.88969
G1 X99.687 Y130.625 E5.97306
G1 X97.31 Y131.464 E6.0569
G1 X94.968 Y132.366 E6.14038
G1 X92.653 Y133.336 E6.22386
G1 X91.374 Y133.923 E6.27067
G1 X90.926 Y134.106 E6.28676
G1 X90.037 Y134.509 E6.31923
G1 X89.167 Y134.859 E6.35042
G1 X88.271 Y135.134 E6.38159
G1 X87.645 Y135.277 E6.40295
G1 X86.719 Y135.422 E6.43412
G1 X85.799 Y135.487 E6.4648
G1 X85.481 Y135.496 E6.47538
G1 X85.17 Y135.5 E6.48572
G1 X75.065 Y135.499 E6.82182
G1 X74.367 Y135.49 E6.84503
G1 X73.431 Y135.438 E6.87621
G1 X72.502 Y135.306 E6.90742
G1 X71.588 Y135.096 E6.93861
G1 X70.695 Y134.809 E6.96981
G1 X69.83 Y134.446 E7.00101
G1 X68.999 Y134.012 E7.03219
G1 X68.208 Y133.508 E7.06339
G1 X67.463 Y132.938 E7.09459
G1 X66.769 Y132.307 E7.12579
G1 X66.132 Y131.62 E7.15695
G1 X65.555 Y130.88 E7.18816
G1 X65.043 Y130.094 E7.21936
G1 X64.6 Y129.267 E7.25056
G1 X64.229 Y128.406 E7.28174
G1 X63.933 Y127.516 E7.31294
G1 X63.714 Y126.604 E7.34413
G1 X63.573 Y125.677 E7.37532
G1 X63.513 Y124.788 E7.40496
G1 X63.504 Y124.455 E7.41604
G1 X63.5 Y124.158 E7.42591
G1 X63.501 Y96.025 E8.36162
G1 X63.51 Y95.36 E8.38374
G1 X63.563 Y94.424 E8.41492
G1 X63.695 Y93.495 E8.44613
G1 X63.906 Y92.581 E8.47733
G1 X64.194 Y91.689 E8.50851
G1 X64.557 Y90.824 E8.53971
G1 X64.992 Y89.993 E8.57091
G1 X65.496 Y89.203 E8.60207
G1 X66.066 Y88.458 E8.63327
G1 X66.698 Y87.764 E8.66449
G1 X67.386 Y87.127 E8.69568
G0 F6000 X67.774 Y87.323
G1 F1200 X68.51 Y86.77 E8.7263
G1 X69.291 Y86.282 E8.75693
G1 X70.111 Y85.864 E8.78754
G1 X70.965 Y85.519 E8.81817
G1 X71.845 Y85.249 E8.84879
G1 X72.745 Y85.057 E8.8794
G1 X73.659 Y84.943 E8.91003
G1 X74.212 Y84.913 E8.92845
G1 X74.533 Y84.904 E8.93913
G1 X74.83 Y84.9 E8.94901
G1 X144.793 Y84.9 E11.27599
G1 X145.643 Y84.911 E11.30426
G1 X146.562 Y84.964 E11.33488
G1 X147.473 Y85.097 E11.3655
G1 X148.369 Y85.308 E11.39612
G1 X149.243 Y85.596 E11.42672
G1 X150.09 Y85.959 E11.45737
G1 X150.901 Y86.394 E11.48798
G1 X151.671 Y86.898 E11.51859
G1 X152.395 Y87.467 E11.54922
G1 X153.067 Y88.097 E11.57986
G1 X153.682 Y88.782 E11.61047
G1 X154.235 Y89.518 E11.64109
G1 X154.722 Y90.299 E11.67171
G1 X155.139 Y91.12 E11.70233
G1 X155.484 Y91.974 E11.73297
G1 X155.753 Y92.854 E11.76357
G1 X155.945 Y93.755 E11.79421
G1 X156.058 Y94.668 E11.82481
G1 X156.087 Y95.212 E11.84293
G1 X156.096 Y95.532 E11.85358
G1 X156.1 Y95.83 E11.86349
G1 X156.099 Y114.895 E12.4976
G1 X156.09 Y115.622 E12.52178
G1 X156.039 Y116.541 E12.55239
G1 X155.908 Y117.453 E12.58304
G1 X155.698 Y118.349 E12.61364
G1 X155.412 Y119.224 E12.64426
G1 X155.051 Y120.071 E12.67489
G1 X154.617 Y120.883 E12.70551
G1 X154.115 Y121.655 E12.73614
G1 X153.547 Y122.38 E12.76677
G1 X152.919 Y123.053 E12.79738
G1 X152.235 Y123.669 E12.828
G1 X151.5 Y124.223 E12.85861
G1 X150.72 Y124.712 E12.88923
G1 X149.9 Y125.131 E12.91986
G1 X149.047 Y125.477 E12.95048
G1 X148.167 Y125.748 E12.9811
G1 X147.267 Y125.941 E13.01172
G1 X146.353 Y126.056 E13.04236
G1 X145.788 Y126.087 E13.06118
G1 X145.467 Y126.096 E13.07186
G1 X145.17 Y126.1 E13.08174
G1 X139.043 Y126.099 E13.28552
G1 X138.333 Y126.088 E13.30914
G1 X137.457 Y126.038 E13.33832
G1 X137.011 Y125.994 E13.35323
G1 X134.432 Y125.775 E13.43931
G1 X131.925 Y125.634 E13.52283
G1 X129.377 Y125.563 E13.60761
G1 X126.866 Y125.563 E13.69112
G1 X124.315 Y125.636 E13.77601
G1 X121.787 Y125.779 E13.86022
G1 X119.306 Y125.991 E13.94304
G1 X116.765 Y126.281 E14.0281
G1 X114.254 Y126.639 E14.11246
G1 X111.807 Y127.058 E14.19504
G1 X109.284 Y127.565 E14.28063
G1 X106.861 Y128.124 E14.36334
G1 X104.374 Y128.77 E14.4488
G1 X101.977 Y129.468 E14.53183
G1 X99.536 Y130.254 E14.61713
G1 X97.169 Y131.09 E14.70062
G1 X94.806 Y132 E14.78484
G1 X92.51 Y132.962 E14.86764
G1 X91.207 Y133.56 E14.91532
G1 X90.757 Y133.743 E14.93148
G1 X89.872 Y134.144 E14.9638
G1 X89.018 Y134.487 E14.99441
G1 X88.137 Y134.755 E15.02503
G1 X87.567 Y134.885 E15.04448
G1 X86.657 Y135.026 E15.07511
G1 X85.788 Y135.087 E15.10408
G1 X85.47 Y135.096 E15.11466
G1 X85.17 Y135.1 E15.12464
G1 X75.07 Y135.099 E15.46057
G1 X74.372 Y135.09 E15.48378
G1 X73.453 Y135.038 E15.5144
G1 X72.542 Y134.907 E15.54501
G1 X71.646 Y134.697 E15.57562
G1 X70.771 Y134.41 E15.60625
G1 X69.924 Y134.048 E15.63688
G1 X69.112 Y133.614 E15.66751
G1 X68.341 Y133.112 E15.69811
G1 X67.616 Y132.544 E15.72874
G1 X66.943 Y131.915 E15.75938
G1 X66.328 Y131.231 E15.78997
G1 X65.774 Y130.496 E15.82059
G1 X65.286 Y129.715 E15.85122
G1 X64.867 Y128.895 E15.88184
G1 X64.521 Y128.042 E15.91246
G1 X64.251 Y127.162 E15.94307
G1 X64.058 Y126.261 E15.97372
G1 X63.944 Y125.348 E16.00432
G1 X63.913 Y124.777 E16.02334
G1 X63.904 Y124.444 E16.03442
G1 X63.9 Y124.158 E16.04394
G1 X63.901 Y96.031 E16.97944
G1 X63.91 Y95.366 E17.00156
G1 X63.962 Y94.446 E17.03221
G1 X64.094 Y93.535 E17.06283
G1 X64.305 Y92.639 E17.09345
G1 X64.592 Y91.764 E17.12407
G1 X64.955 Y90.918 E17.15469
G1 X65.389 Y90.106 E17.18532
G1 X65.892 Y89.335 E17.21593
G1 X66.461 Y88.611 E17.24656
G1 X67.089 Y87.939 E17.27715
G1 X67.774 Y87.323 E17.30779
G0 F6000 X68.162 Y87.524
G1 F1200 X68.894 Y86.994 E17.33785
G1 X69.669 Y86.531 E17.36788
G1 X70.482 Y86.138 E17.39791
G1 X71.327 Y85.818 E17.42796
G1 X72.196 Y85.575 E17.45798
G1 X73.084 Y85.409 E17.48802
G1 X74.223 Y85.313 E17.52604
G1 X74.544 Y85.304 E17.53672
G1 X74.83 Y85.3 E17.54623
G1 X144.793 Y85.3 E19.87321
G1 X145.637 Y85.311 E19.90129
G1 X146.539 Y85.364 E19.93134
G1 X147.432 Y85.496 E19.96136
G1 X148.31 Y85.707 E19.9914
G1 X149.166 Y85.995 E20.02144
G1 X149.993 Y86.357 E20.05146
G1 X150.785 Y86.792 E20.08152
G1 X151.536 Y87.294 E20.11156
G1 X152.239 Y87.861 E20.1416
G1 X152.889 Y88.488 E20.17164
G1 X153.481 Y89.17 E20.20167
G1 X154.011 Y89.901 E20.23171
G1 X154.473 Y90.677 E20.26174
G1 X154.866 Y91.49 E20.29178
G1 X155.184 Y92.335 E20.32181
G1 X155.427 Y93.205 E20.35185
G1 X155.592 Y94.093 E20.38189
G1 X155.687 Y95.223 E20.41961
G1 X155.696 Y95.543 E20.43025
G1 X155.7 Y95.83 E20.4398
G1 X155.699 Y114.89 E21.07374
G1 X155.69 Y115.617 E21.09792
G1 X155.639 Y116.519 E21.12797
G1 X155.508 Y117.413 E21.15802
G1 X155.299 Y118.291 E21.18804
G1 X155.013 Y119.148 E21.21809
G1 X154.652 Y119.976 E21.24813
G1 X154.22 Y120.768 E21.27814
G1 X153.719 Y121.52 E21.30819
G1 X153.153 Y122.224 E21.33824
G1 X152.528 Y122.875 E21.36825
G1 X151.847 Y123.469 E21.39831
G1 X151.116 Y124 E21.42836
G1 X150.342 Y124.464 E21.45837
G1 X149.529 Y124.858 E21.48842
G1 X148.685 Y125.178 E21.51844
G1 X147.815 Y125.423 E21.54851
G1 X146.928 Y125.589 E21.57852
G1 X145.777 Y125.687 E21.61694
G1 X145.456 Y125.696 E21.62762
G1 X145.17 Y125.7 E21.63714
G1 X139.049 Y125.699 E21.84072
G1 X138.339 Y125.688 E21.86434
G1 X137.496 Y125.64 E21.89242
G1 X137.087 Y125.6 E21.90609
G1 X134.452 Y125.376 E21.99405
G1 X131.922 Y125.234 E22.07833
G1 X129.388 Y125.163 E22.16264
G1 X126.855 Y125.163 E22.24689
G1 X124.315 Y125.236 E22.3314
G1 X121.767 Y125.38 E22.41629
G1 X119.228 Y125.597 E22.50104
G1 X116.73 Y125.882 E22.58467
G1 X114.2 Y126.242 E22.66966
G1 X111.697 Y126.671 E22.75412
G1 X109.221 Y127.169 E22.83813
G1 X106.775 Y127.733 E22.92162
G1 X104.267 Y128.385 E23.0078
G1 X101.847 Y129.089 E23.09163
G1 X99.428 Y129.868 E23.17616
G1 X97.029 Y130.715 E23.26077
G1 X94.657 Y131.629 E23.34532
G1 X92.332 Y132.603 E23.42916
G1 X91.04 Y133.196 E23.47644
G1 X90.61 Y133.371 E23.49189
G1 X89.707 Y133.78 E23.52486
G1 X88.869 Y134.116 E23.55489
G1 X88.004 Y134.376 E23.58493
G1 X87.488 Y134.493 E23.60253
G1 X86.596 Y134.631 E23.63255
G1 X85.777 Y134.687 E23.65985
G1 X85.459 Y134.696 E23.67043
G1 X85.17 Y134.7 E23.68004
G1 X75.075 Y134.699 E24.0158
G1 X74.377 Y134.69 E24.03902
G1 X73.476 Y134.639 E24.06904
G1 X72.582 Y134.507 E24.09909
G1 X71.704 Y134.298 E24.12911
G1 X70.847 Y134.011 E24.15917
G1 X70.02 Y133.65 E24.18919
G1 X69.227 Y133.217 E24.21924
G1 X68.476 Y132.716 E24.24926
G1 X67.772 Y132.15 E24.27931
G1 X67.121 Y131.524 E24.30935
G1 X66.528 Y130.843 E24.33938
G1 X65.998 Y130.112 E24.36941
G1 X65.534 Y129.337 E24.39945
G1 X65.14 Y128.524 E24.4295
G1 X64.82 Y127.68 E24.45952
G1 X64.576 Y126.81 E24.48958
G1 X64.41 Y125.922 E24.51962
G1 X64.313 Y124.767 E24.55817
G1 X64.304 Y124.434 E24.56925
G1 X64.3 Y124.158 E24.57843
G1 X64.301 Y96.036 E25.51378
G1 X64.31 Y95.371 E25.5359
G1 X64.362 Y94.469 E25.56595
G1 X64.494 Y93.576 E25.59597
G1 X64.704 Y92.698 E25.626
G1 X64.991 Y91.841 E25.65606
G1 X65.353 Y91.014 E25.68608
G1 X65.786 Y90.222 E25.7161
G1 X66.288 Y89.471 E25.74615
G1 X66.855 Y88.767 E25.77621
G1 X67.481 Y88.117 E25.80623
G1 X68.162 Y87.524 E25.83626
G1 F2700 E20.83626
;MESH:window_part.stl
G0 F6000 X74.914 Y94.835
G0 X74.914 Y95.914
G0 X75.282 Y123.718
G0 X84.9 Y123.9
;TYPE:WALL-INNER
G1 F2700 E25.83626
G1 F1200 X75.1 Y123.9 E26.16221
G1 X75.1 Y96.1 E27.08684
G1 X144.9 Y96.1 E29.4084
G1 X144.9 Y114.9 E30.03369
G1 X139.1 Y114.9 E30.2266
G1 X139.1 Y114.1 E30.25321
G1 X141.1 Y114.1 E30.31973
G1 X141.1 Y103.9 E30.65898
G1 X82.9 Y103.9 E32.59472
G1 X82.9 Y121.1 E33.1668
G1 X84.9 Y121.1 E33.23332
G1 X84.9 Y123.9 E33.32645
G0 F6000 X85.3 Y124.3
;TYPE:WALL-OUTER
G1 F1200 X74.7 Y124.3 E33.679
G1 X74.7 Y95.7 E34.63024
G1 X145.3 Y95.7 E36.97841
G1 X145.3 Y115.3 E37.63031
G1 X138.7 Y115.3 E37.84982
G1 X138.7 Y113.7 E37.90304
G1 X140.7 Y113.7 E37.96956
G1 X140.7 Y104.3 E38.28221
G1 X83.3 Y104.3 E40.19134
G1 X83.3 Y120.7 E40.7368
G1 X85.3 Y120.7 E40.80332
G1 X85.3 Y124.3 E40.92306
G0 F6000 X85.03 Y124.03
G0 X84.79 Y123.51
G0 X84.51 Y123.51
;TYPE:SKIN
G1 F1200 X75.49 Y123.51 E41.22307
G1 X75.49 Y96.49 E42.12176
G1 X144.51 Y96.49 E44.41737
G1 X144.51 Y114.51 E45.01672
G1 X139.49 Y114.51 E45.18368
G1 X139.49 Y114.49 E45.18435
G1 X141.49 Y114.49 E45.25087
G1 X141.49 Y103.51 E45.61607
G1 X82.51 Y103.51 E47.57775
G1 X82.51 Y121.49 E48.17577
G1 X84.51 Y121.49 E48.24229
G1 X84.51 Y123.51 E48.30947
G0 F6000 X84.79 Y123.51
G0 X75.831 Y123.79
G0 X75.831 Y123.349
G1 F1200 X75.649 Y123.167 E48.31803
G0 F6000 X75.649 Y122.601
G1 F1200 X76.397 Y123.349 E48.35322
G0 F6000 X76.962 Y123.349
G1 F1200 X75.649 Y122.036 E48.41498
G0 F6000 X75.649 Y121.47
G1 F1200 X77.528 Y123.349 E48.50336
G0 F6000 X78.094 Y123.349
G1 F1200 X75.649 Y120.904 E48.61836
G0 F6000 X75.649 Y120.338
G1 F1200 X78.659 Y123.349 E48.75997
G0 F6000 X79.225 Y123.349
G1 F1200 X75.649 Y119.773 E48.92817
G0 F6000 X75.649 Y119.207
G1 F1200 X79.791 Y123.349 E49.123
G0 F6000 X80.357 Y123.349
G1 F1200 X75.649 Y118.641 E49.34445
G0 F6000 X75.649 Y118.076
G1 F1200 X80.922 Y123.349 E49.59247
G0 F6000 X81.488 Y123.349
G1 F1200 X75.649 Y117.51 E49.86712
G0 F6000 X75.649 Y116.944
G1 F1200 X82.054 Y123.349 E50.16839
G0 F6000 X82.619 Y123.349
G1 F1200 X75.649 Y116.379 E50.49624
G0 F6000 X75.649 Y115.813
G1 F1200 X83.185 Y123.349 E50.85071
G0 F6000 X83.751 Y123.349
G1 F1200 X75.649 Y115.247 E51.23181
G0 F6000 X75.649 Y114.682
G1 F1200 X82.349 Y121.381 E51.54693
G0 F6000 X82.616 Y121.649
G1 F1200 X84.316 Y123.349 E51.62689
G0 F6000 X84.35 Y122.816
G1 F1200 X83.182 Y121.649 E51.68181
G0 F6000 X83.748 Y121.649
G1 F1200 X84.35 Y122.25 E51.7101
G0 F6000 X84.79 Y122.25
G0 X84.718 Y121.282
G0 X84.358 Y121.282
G0 X82.79 Y120.816
G0 X82.349 Y120.816
G1 F1200 X75.649 Y114.116 E52.02525
G0 F6000 X75.649 Y113.55
G1 F1200 X82.349 Y120.25 E52.3404
G0 F6000 X82.349 Y119.684
G1 F1200 X75.649 Y112.985 E52.65552
G0 F6000 X75.649 Y112.419
G1 F1200 X82.349 Y119.119 E52.97067
G0 F6000 X82.349 Y118.553
G1 F1200 X75.649 Y111.853 E53.28581
G0 F6000 X75.649 Y111.288
G1 F1200 X82.349 Y117.987 E53.60094
G0 F6000 X82.349 Y117.422
G1 F1200 X75.649 Y110.722 E53.91609
G0 F6000 X75.649 Y110.156
G1 F1200 X82.349 Y116.856 E54.23123
G0 F6000 X82.349 Y116.29
G1 F1200 X75.649 Y109.59 E54.54638
G0 F6000 X75.649 Y109.025
G1 F1200 X82.349 Y115.725 E54.86153
G0 F6000 X82.349 Y115.159
G1 F1200 X75.649 Y108.459 E55.17668
G0 F6000 X75.649 Y107.893
G1 F1200 X82.349 Y114.593 E55.49182
G0 F6000 X82.349 Y114.028
G1 F1200 X75.649 Y107.328 E55.80697
G0 F6000 X75.649 Y106.762
G1 F1200 X82.349 Y113.462 E56.12212
G0 F6000 X82.349 Y112.896
G1 F1200 X75.649 Y106.196 E56.43727
G0 F6000 X75.649 Y105.631
G1 F1200 X82.349 Y112.33 E56.75239
G0 F6000 X82.349 Y111.765
G1 F1200 X75.649 Y105.065 E57.06754
G0 F6000 X75.649 Y104.499
G1 F1200 X82.349 Y111.199 E57.38268
G0 F6000 X82.349 Y110.633
G1 F1200 X75.649 Y103.934 E57.69781
G0 F6000 X75.649 Y103.368
G1 F1200 X82.349 Y110.068 E58.01296
G0 F6000 X82.349 Y109.502
G1 F1200 X75.649 Y102.802 E58.3281
G0 F6000 X75.649 Y102.237
G1 F1200 X82.349 Y108.936 E58.64323
G0 F6000 X82.349 Y108.371
G1 F1200 X75.649 Y101.671 E58.95837
G0 F6000 X75.649 Y101.105
G1 F1200 X82.349 Y107.805 E59.27352
G0 F6000 X82.349 Y107.239
G1 F1200 X75.649 Y100.539 E59.58867
G0 F6000 X75.649 Y99.974
G1 F1200 X82.349 Y106.674 E59.90382
G0 F6000 X82.349 Y106.108
G1 F1200 X75.649 Y99.408 E60.21896
G0 F6000 X75.649 Y98.842
G1 F1200 X82.349 Y105.542 E60.53411
G0 F6000 X82.349 Y104.977
G1 F1200 X75.649 Y98.277 E60.84926
G0 F6000 X75.649 Y97.711
G1 F1200 X82.349 Y104.411 E61.16441
G0 F6000 X82.349 Y103.845
G1 F1200 X75.649 Y97.145 E61.47955
G0 F6000 X75.719 Y96.65
